X: 1
T:Glasgow City Police  "CYMRU"
M:6/8
L:1/8
Q:80
C:D. MacLeod - Pt. 3 by S. MacAulay
S:Jig
K:HP
|: e|
{d}ca{g}aA{d}A{e}A|
{d}cac{g}B{d}B{e}B|
{d}ca{g}aA{d}ca|  !
fec{g}A{d}A{e}A| |
{d}ca{g}aA{d}A{e}A|
{d}cac{g}B{d}B{e}B|  !
{g}A{d}ce{g}fga|
fec{g}A{d}A{e}A:| |:
{d}ca{g}aga{g}a|  !
fa{g}aBa{g}a|
ca{g}aga{g}a|
fa{g}aAa{g}a| |  !
{d}ca{g}aga{g}a|
fa{g}aBa{g}a|
Aa{g}aga{g}a|  !
fa{g}a|1 Aa{g}a|2 {AGAG}A3:| |:
{g}fa{g}afa{g}a|
fadaBa|  !
ea{g}aea{g}a|
eacaAa|1 |
da{g}ada{g}a|  !
daBaGa|
Aa{g}aBac|
a{g}adaea:|2 |  !
da{g}ada{g}a|
daBaGa|
Aa{g}aga{g}a|  !
fa{g}a{AGAG}A3|]
